X:73
T: EIN SCHNEIDER FING NE MAUS
N: K1239
O: Europa, Mitteleuropa, Deutschland, Zwickau
R: Kinder -, Spass - Lied, Neck - Maerchen
M: 2/4
L: 1/16
K: F
C2 | F3FF3F | F6
G2 | A3AA3A | A6
c2 | c3cc3c | d2c2B2A2 | G4c4 | c4z2

@@@ Tune index: 7410
